app/_assets/images/distributions/source.svg

<svg height="24" preserveAspectRatio="xMidYMid" viewBox="0 0 89 24" width="89" xmlns="http://www.w3.org/2000/svg"><g fill-rule="evenodd"><path d="m81.243 14.122c.072 2.268 1.171 3.313 2.953 3.313 1.423 0 2.503-.541 3.583-1.369 0 0 .252 1.585.252 1.585-1.044.81-2.34 1.296-3.961 1.296-2.611 0-4.609-1.512-4.609-5.041 0-3.079 1.872-4.97 4.375-4.97 2.881 0 4.213 2.161 4.213 4.808v.378zm2.575-3.799c-1.206 0-2.197.828-2.485 2.466h4.916c-.198-1.566-.954-2.466-2.431-2.466zm-9.208 7.076c1.009 0 1.999-.27 2.989-1.081 0 0 .252 1.639.252 1.639-.918.666-1.998.99-3.403.99-2.665 0-4.627-1.8-4.627-4.987 0-3.277 2.088-5.024 4.753-5.024 1.423 0 2.485.414 3.187.882 0 0-.27 1.729-.27 1.729-.882-.666-1.8-1.062-2.953-1.062-1.728 0-2.917 1.224-2.917 3.439 0 2.358 1.279 3.475 2.989 3.475zm-9.07-4.358v5.708h-1.783v-9.615h1.404s.306 1.963.306 1.963c.721-1.099 1.873-2.089 3.512-2.161 0 0 .288 1.693.288 1.693-1.657.072-3.061 1.152-3.727 2.412zm-6.013 4.322c-.972.846-2.161 1.584-3.547 1.584-1.927 0-2.917-1.08-2.917-2.827v-6.986h1.782v6.554c0 1.008.469 1.675 1.585 1.675 1.008 0 2.017-.631 2.953-1.567v-6.662h1.782v9.615h-1.404s-.234-1.386-.234-1.386zm-13.053 1.584c-2.647 0-4.573-1.836-4.573-4.987 0-3.169 1.944-5.024 4.573-5.024 2.665 0 4.628 1.855 4.628 5.024 0 3.151-1.981 4.987-4.628 4.987zm0-8.534c-1.818 0-2.773 1.494-2.773 3.547 0 1.98.991 3.511 2.773 3.511 1.855 0 2.827-1.477 2.827-3.511 0-1.999-1.026-3.547-2.827-3.547zm-6.021 4.807c0 2.251-1.746 3.673-4.285 3.673-1.458 0-2.773-.324-3.763-.846 0 0 .27-1.837.27-1.837.9.594 2.179 1.117 3.547 1.117 1.422 0 2.449-.703 2.449-1.963 0-1.188-.558-1.674-2.611-2.557-2.557-1.116-3.511-1.926-3.511-3.799 0-2.107 1.656-3.457 4.105-3.457 1.315 0 2.287.306 3.079.738 0 0-.288 1.801-.288 1.801-.756-.54-1.765-.972-2.863-.972-1.548 0-2.251.792-2.251 1.746 0 .99.523 1.459 2.593 2.377 2.611 1.152 3.529 2.016 3.529 3.979z" fill="#393e40"/><path d="m22 24h-20c-1.105 0-2-.895-2-2v-20c0-1.105.895-2 2-2h20c1.105 0 2 .895 2 2v20c0 1.105-.895 2-2 2zm-14-5h8v-2h-8zm6-4v-2h-4v2zm-10 4h2v-2h-2zm0-4h4v-2h-4zm0-4h2v-2h-2zm4-6h-4v2h4zm6 0h-4v2h4zm2 4h-8v2h8zm4 0h-2v2h2zm0 4h-4v2h4z" fill="#8a9399"/></g></svg>

<svg xmlns="http://www.w3.org/2000/svg" xmlns:xlink="http://www.w3.org/1999/xlink" preserveAspectRatio="xMidYMid" width="89" height="24" viewBox="0 0 89 24">
  <defs>
    <style>

      .cls-3 {
        fill: #393e40;
      }

      .cls-4 {
        fill: #8a9399;
      }
    </style>
  </defs>
  <g id="sourcesvg">
    <path d="M81.243,14.122 C81.315,16.390 82.414,17.435 84.196,17.435 C85.619,17.435 86.699,16.894 87.779,16.066 C87.779,16.066 88.031,17.651 88.031,17.651 C86.987,18.461 85.691,18.947 84.070,18.947 C81.459,18.947 79.461,17.435 79.461,13.906 C79.461,10.827 81.333,8.936 83.836,8.936 C86.717,8.936 88.049,11.097 88.049,13.744 C88.049,13.744 88.049,14.122 88.049,14.122 C88.049,14.122 81.243,14.122 81.243,14.122 ZM83.818,10.323 C82.612,10.323 81.621,11.151 81.333,12.789 C81.333,12.789 86.249,12.789 86.249,12.789 C86.051,11.223 85.295,10.323 83.818,10.323 ZM74.610,17.399 C75.619,17.399 76.609,17.129 77.599,16.318 C77.599,16.318 77.851,17.957 77.851,17.957 C76.933,18.623 75.853,18.947 74.448,18.947 C71.783,18.947 69.821,17.147 69.821,13.960 C69.821,10.683 71.909,8.936 74.574,8.936 C75.997,8.936 77.059,9.350 77.761,9.818 C77.761,9.818 77.491,11.547 77.491,11.547 C76.609,10.881 75.691,10.485 74.538,10.485 C72.810,10.485 71.621,11.709 71.621,13.924 C71.621,16.282 72.900,17.399 74.610,17.399 ZM65.540,13.041 C65.540,13.041 65.540,18.749 65.540,18.749 C65.540,18.749 63.757,18.749 63.757,18.749 C63.757,18.749 63.757,9.134 63.757,9.134 C63.757,9.134 65.161,9.134 65.161,9.134 C65.161,9.134 65.467,11.097 65.467,11.097 C66.188,9.998 67.340,9.008 68.979,8.936 C68.979,8.936 69.267,10.629 69.267,10.629 C67.610,10.701 66.206,11.781 65.540,13.041 ZM59.527,17.363 C58.555,18.209 57.366,18.947 55.980,18.947 C54.053,18.947 53.063,17.867 53.063,16.120 C53.063,16.120 53.063,9.134 53.063,9.134 C53.063,9.134 54.845,9.134 54.845,9.134 C54.845,9.134 54.845,15.688 54.845,15.688 C54.845,16.696 55.314,17.363 56.430,17.363 C57.438,17.363 58.447,16.732 59.383,15.796 C59.383,15.796 59.383,9.134 59.383,9.134 C59.383,9.134 61.165,9.134 61.165,9.134 C61.165,9.134 61.165,18.749 61.165,18.749 C61.165,18.749 59.761,18.749 59.761,18.749 C59.761,18.749 59.527,17.363 59.527,17.363 ZM46.474,18.947 C43.827,18.947 41.901,17.111 41.901,13.960 C41.901,10.791 43.845,8.936 46.474,8.936 C49.139,8.936 51.102,10.791 51.102,13.960 C51.102,17.111 49.121,18.947 46.474,18.947 ZM46.474,10.413 C44.656,10.413 43.701,11.907 43.701,13.960 C43.701,15.940 44.692,17.471 46.474,17.471 C48.329,17.471 49.301,15.994 49.301,13.960 C49.301,11.961 48.275,10.413 46.474,10.413 ZM40.453,15.220 C40.453,17.471 38.707,18.893 36.168,18.893 C34.710,18.893 33.395,18.569 32.405,18.047 C32.405,18.047 32.675,16.210 32.675,16.210 C33.575,16.804 34.854,17.327 36.222,17.327 C37.644,17.327 38.671,16.624 38.671,15.364 C38.671,14.176 38.113,13.690 36.060,12.807 C33.503,11.691 32.549,10.881 32.549,9.008 C32.549,6.901 34.205,5.551 36.654,5.551 C37.969,5.551 38.941,5.857 39.733,6.289 C39.733,6.289 39.445,8.090 39.445,8.090 C38.689,7.550 37.680,7.118 36.582,7.118 C35.034,7.118 34.331,7.910 34.331,8.864 C34.331,9.854 34.854,10.323 36.924,11.241 C39.535,12.393 40.453,13.257 40.453,15.220 Z" id="path-1" class="cls-3" fill-rule="evenodd"/>
    <path d="M22.000,24.000 C22.000,24.000 2.000,24.000 2.000,24.000 C0.895,24.000 -0.000,23.105 -0.000,22.000 C-0.000,22.000 -0.000,2.000 -0.000,2.000 C-0.000,0.895 0.895,-0.000 2.000,-0.000 C2.000,-0.000 22.000,-0.000 22.000,-0.000 C23.105,-0.000 24.000,0.895 24.000,2.000 C24.000,2.000 24.000,22.000 24.000,22.000 C24.000,23.105 23.105,24.000 22.000,24.000 ZM8.000,19.000 C8.000,19.000 16.000,19.000 16.000,19.000 C16.000,19.000 16.000,17.000 16.000,17.000 C16.000,17.000 8.000,17.000 8.000,17.000 C8.000,17.000 8.000,19.000 8.000,19.000 ZM14.000,15.000 C14.000,15.000 14.000,13.000 14.000,13.000 C14.000,13.000 10.000,13.000 10.000,13.000 C10.000,13.000 10.000,15.000 10.000,15.000 C10.000,15.000 14.000,15.000 14.000,15.000 ZM4.000,19.000 C4.000,19.000 6.000,19.000 6.000,19.000 C6.000,19.000 6.000,17.000 6.000,17.000 C6.000,17.000 4.000,17.000 4.000,17.000 C4.000,17.000 4.000,19.000 4.000,19.000 ZM4.000,15.000 C4.000,15.000 8.000,15.000 8.000,15.000 C8.000,15.000 8.000,13.000 8.000,13.000 C8.000,13.000 4.000,13.000 4.000,13.000 C4.000,13.000 4.000,15.000 4.000,15.000 ZM4.000,11.000 C4.000,11.000 6.000,11.000 6.000,11.000 C6.000,11.000 6.000,9.000 6.000,9.000 C6.000,9.000 4.000,9.000 4.000,9.000 C4.000,9.000 4.000,11.000 4.000,11.000 ZM8.000,5.000 C8.000,5.000 4.000,5.000 4.000,5.000 C4.000,5.000 4.000,7.000 4.000,7.000 C4.000,7.000 8.000,7.000 8.000,7.000 C8.000,7.000 8.000,5.000 8.000,5.000 ZM14.000,5.000 C14.000,5.000 10.000,5.000 10.000,5.000 C10.000,5.000 10.000,7.000 10.000,7.000 C10.000,7.000 14.000,7.000 14.000,7.000 C14.000,7.000 14.000,5.000 14.000,5.000 ZM16.000,9.000 C16.000,9.000 8.000,9.000 8.000,9.000 C8.000,9.000 8.000,11.000 8.000,11.000 C8.000,11.000 16.000,11.000 16.000,11.000 C16.000,11.000 16.000,9.000 16.000,9.000 ZM20.000,9.000 C20.000,9.000 18.000,9.000 18.000,9.000 C18.000,9.000 18.000,11.000 18.000,11.000 C18.000,11.000 20.000,11.000 20.000,11.000 C20.000,11.000 20.000,9.000 20.000,9.000 ZM20.000,13.000 C20.000,13.000 16.000,13.000 16.000,13.000 C16.000,13.000 16.000,15.000 16.000,15.000 C16.000,15.000 20.000,15.000 20.000,15.000 C20.000,15.000 20.000,13.000 20.000,13.000 Z" id="path-2" class="cls-4" fill-rule="evenodd"/>
  </g>
</svg>
